X:1
T:Footprints
C:1966 - Wayne Shorter
Z:www.realbook.site
L:1/8
M:3/4
I:linebreak $
K:Cmin
V:1 treble nm=" " snm=" "
V:1
"Cm7" B2 B2 B2 | B2 c3 =A | B3 =A GF | D4 C2 |$ z6 | z6 | z6 | z6 |$"Fm7" B2 B2 B2 | B2 c3 d | %10
 e3 d cB | G4 F2 |$"Cm7" B3 =A GF | D4 C2 | z6 | z6 |$"F#m7b5" =B2 B2 B2 |"B7#9" =B2 c3 G | %18
"E7#9" _B6 |"A7#9#5" G3 c G_G |$"Cm7" F6- | F6- | F6- | F6 |] %24

